img/starship.svg

<svg xmlns="http://www.w3.org/2000/svg" xmlns:xlink="http://www.w3.org/1999/xlink" width="512" height="512" style="shape-rendering:geometricPrecision;text-rendering:geometricPrecision;image-rendering:optimizeQuality;fill-rule:evenodd;clip-rule:evenodd"><defs><linearGradient id="b"><stop offset="0" style="stop-color:#c51a9b;stop-opacity:1"/><stop offset="1" style="stop-color:#620046;stop-opacity:0"/></linearGradient><linearGradient id="a"><stop offset="0" style="stop-color:#d70093;stop-opacity:1"/><stop offset=".9" style="stop-color:#6500d7;stop-opacity:1"/></linearGradient><linearGradient xlink:href="#a" id="c" x1="323" x2="169.116" y1="118.5" y2="380.5" gradientUnits="userSpaceOnUse"/><linearGradient xlink:href="#b" id="d" x1="307.81" x2="296.054" y1="172.027" y2="232.2" gradientUnits="userSpaceOnUse"/></defs><circle cx="256" cy="256" r="256" style="clip-rule:evenodd;fill:url(#c);fill-rule:evenodd;stroke-width:1;image-rendering:optimizeQuality;shape-rendering:geometricPrecision;text-rendering:geometricPrecision;fill-opacity:1"/><g style="shape-rendering:geometricPrecision;text-rendering:geometricPrecision;image-rendering:optimizeQuality;fill-rule:evenodd;clip-rule:evenodd"><path fill="#fefefe" d="M279.5 433.5a239 239 0 0 1-14 33q-12.33 24.657-32 44-75.237-5.728-134-52a186.5 186.5 0 0 0 47-12q20.09-8.526 36-23 5.904-3.399 10-9 10.632-8.315 17-20a106 106 0 0 0 10-14l67 22q-1.763 15.582-7 31" style="opacity:.994"/></g><g style="shape-rendering:geometricPrecision;text-rendering:geometricPrecision;image-rendering:optimizeQuality;fill-rule:evenodd;clip-rule:evenodd"><path fill="#fefcfe" d="M167.5 144.5q-24.666 8.163-27 34-2.449-2.355-4-7a67 67 0 0 0-4.5-10q-12.339-16.31-32.5-21 17.343-2.42 29-15 9.768-11.562 11.5-27 4.419 34.666 38.5 42-5.534 2.01-11 4" style="opacity:1"/></g><g style="shape-rendering:geometricPrecision;text-rendering:geometricPrecision;image-rendering:optimizeQuality;fill-rule:evenodd;clip-rule:evenodd"><path fill="#fefefe" d="M344.5 147.5q9.902 16.308 14 35a88 88 0 0 1 2 13q1.161 24.693-7 48-2.506 3.574-4 8 18.41 21.822 24 50a147 147 0 0 1 4 26v11l-22-4a583 583 0 0 0-36.5-9q-1.989.383-3 2a398 398 0 0 1-8 21q-2.742 1.878-5.5 0a8767 8767 0 0 0-71-20.5q-.575-7.483 3-14.5a218 218 0 0 1 3-11.5 3.94 3.94 0 0 0-1-2 1967 1967 0 0 1-57-23.5q10.073-13.073 23-23 8.034-5.549 16-11 12.053-6.524 24-13 1.494.129 2.5-1-.237-20.543 8.5-39a150.6 150.6 0 0 1 26-35q4-3 7-7a379 379 0 0 0 25-21q6.316-3.047 11.5-8a295 295 0 0 1 21.5 29" style="opacity:1"/></g><circle cx="305.548" cy="203.39" r="19.048" style="fill:url(#d);fill-opacity:1;fill-rule:evenodd;stroke-width:1"/></svg>

<?xml version="1.0" encoding="UTF-8" standalone="no"?>
<svg
   version="1.1"
   width="512px"
   height="512px"
   style="shape-rendering:geometricPrecision; text-rendering:geometricPrecision; image-rendering:optimizeQuality; fill-rule:evenodd; clip-rule:evenodd"
   id="svg31"
   sodipodi:docname="icon.svg"
   inkscape:export-filename="starship.svg"
   inkscape:export-xdpi="96"
   inkscape:export-ydpi="96"
   inkscape:version="1.3.2 (091e20ef0f, 2023-11-25, custom)"
   xmlns:inkscape="http://www.inkscape.org/namespaces/inkscape"
   xmlns:sodipodi="http://sodipodi.sourceforge.net/DTD/sodipodi-0.dtd"
   xmlns:xlink="http://www.w3.org/1999/xlink"
   xmlns="http://www.w3.org/2000/svg"
   xmlns:svg="http://www.w3.org/2000/svg">
  <defs
     id="defs31">
    <linearGradient
       id="linearGradient3"
       inkscape:collect="always">
      <stop
         style="stop-color:#c51a9b;stop-opacity:1;"
         offset="0"
         id="stop3" />
      <stop
         style="stop-color:#620046;stop-opacity:0;"
         offset="1"
         id="stop4" />
    </linearGradient>
    <linearGradient
       id="linearGradient31-1"
       inkscape:label="123">
      <stop
         style="stop-color:#d70093;stop-opacity:1;"
         offset="0"
         id="stop35" />
      <stop
         style="stop-color:#6500d7;stop-opacity:1;"
         offset="0.90025574"
         id="stop36" />
    </linearGradient>
    <linearGradient
       inkscape:collect="always"
       xlink:href="#linearGradient31-1"
       id="linearGradient32"
       x1="323"
       y1="118.5"
       x2="169.11557"
       y2="380.5"
       gradientUnits="userSpaceOnUse" />
    <linearGradient
       inkscape:collect="always"
       xlink:href="#linearGradient3"
       id="linearGradient4"
       x1="307.81"
       y1="172.02731"
       x2="296.05441"
       y2="232.19955"
       gradientUnits="userSpaceOnUse" />
  </defs>
  <sodipodi:namedview
     id="namedview31"
     pagecolor="#ffffff"
     bordercolor="#000000"
     borderopacity="0.25"
     inkscape:showpageshadow="2"
     inkscape:pageopacity="0.0"
     inkscape:pagecheckerboard="0"
     inkscape:deskcolor="#d1d1d1"
     inkscape:zoom="0.86132811"
     inkscape:cx="212.46259"
     inkscape:cy="362.2313"
     inkscape:window-width="1920"
     inkscape:window-height="1128"
     inkscape:window-x="0"
     inkscape:window-y="0"
     inkscape:window-maximized="1"
     inkscape:current-layer="svg31" />
  <ellipse
     style="clip-rule:evenodd;fill:url(#linearGradient32);fill-rule:evenodd;stroke-width:1;image-rendering:optimizeQuality;shape-rendering:geometricPrecision;text-rendering:geometricPrecision;fill-opacity:1"
     id="path31"
     cx="255.99998"
     cy="256"
     rx="255.99998"
     ry="256" />
  <g
     id="g28"
     style="shape-rendering:geometricPrecision;text-rendering:geometricPrecision;image-rendering:optimizeQuality;fill-rule:evenodd;clip-rule:evenodd">
    <path
       style="opacity:0.994"
       fill="#fefefe"
       d="M 279.5,433.5 C 275.66,444.847 270.994,455.847 265.5,466.5C 257.28,482.938 246.613,497.605 233.5,510.5C 183.342,506.681 138.676,489.348 99.5,458.5C 115.704,456.542 131.371,452.542 146.5,446.5C 159.893,440.816 171.893,433.149 182.5,423.5C 186.436,421.234 189.769,418.234 192.5,414.5C 199.588,408.957 205.255,402.29 209.5,394.5C 213.196,390.13 216.53,385.463 219.5,380.5C 241.833,387.833 264.167,395.167 286.5,402.5C 285.325,412.888 282.991,423.221 279.5,433.5 Z"
       id="path28" />
  </g>
  <g
     id="g9"
     style="shape-rendering:geometricPrecision;text-rendering:geometricPrecision;image-rendering:optimizeQuality;fill-rule:evenodd;clip-rule:evenodd">
    <path
       style="opacity:1"
       fill="#fefcfe"
       d="M 167.5,144.5 C 151.056,149.942 142.056,161.275 140.5,178.5C 138.868,176.93 137.534,174.597 136.5,171.5C 135.286,168.07 133.786,164.736 132,161.5C 123.774,150.627 112.941,143.627 99.5,140.5C 111.062,138.887 120.729,133.887 128.5,125.5C 135.012,117.792 138.845,108.792 140,98.5C 142.946,121.611 155.779,135.611 178.5,140.5C 174.81,141.84 171.144,143.174 167.5,144.5 Z"
       id="path9" />
  </g>
  <g
     id="g10"
     style="shape-rendering:geometricPrecision;text-rendering:geometricPrecision;image-rendering:optimizeQuality;fill-rule:evenodd;clip-rule:evenodd">
    <path
       style="opacity:1"
       fill="#fefefe"
       d="M 344.5,147.5 C 351.101,158.372 355.768,170.039 358.5,182.5C 359.49,186.772 360.156,191.106 360.5,195.5C 361.274,211.962 358.941,227.962 353.5,243.5C 351.83,245.883 350.496,248.549 349.5,251.5C 361.773,266.048 369.773,282.715 373.5,301.5C 375.61,310.039 376.943,318.705 377.5,327.5C 377.5,331.167 377.5,334.833 377.5,338.5C 370.163,337.165 362.829,335.832 355.5,334.5C 343.552,331.138 331.386,328.138 319,325.5C 317.674,325.755 316.674,326.422 316,327.5C 313.53,334.578 310.863,341.578 308,348.5C 306.172,349.752 304.339,349.752 302.5,348.5C 278.88,341.572 255.214,334.739 231.5,328C 231.117,323.011 232.117,318.178 234.5,313.5C 235.391,309.657 236.391,305.824 237.5,302C 237.355,301.228 237.022,300.561 236.5,300C 217.345,292.451 198.345,284.618 179.5,276.5C 186.215,267.785 193.882,260.118 202.5,253.5C 207.856,249.801 213.19,246.134 218.5,242.5C 226.535,238.151 234.535,233.817 242.5,229.5C 243.496,229.586 244.329,229.252 245,228.5C 244.842,214.805 247.675,201.805 253.5,189.5C 260.46,176.585 269.127,164.918 279.5,154.5C 282.167,152.5 284.5,150.167 286.5,147.5C 295.151,140.846 303.484,133.846 311.5,126.5C 315.711,124.469 319.544,121.802 323,118.5C 330.801,127.786 337.968,137.453 344.5,147.5 Z"
       id="path10" />
  </g>
  <circle
     style="fill:url(#linearGradient4);fill-opacity:1;fill-rule:evenodd;stroke-width:1"
     id="path1"
     cx="305.54813"
     cy="203.38966"
     r="19.048117" />
</svg>
